docs/icons/itmop.svg

<svg width="128" height="128" viewBox="0 0 128 128" fill="none" xmlns="http://www.w3.org/2000/svg">
 
<path d="M105.5 76.5C105.5 76.5 105.5 76.5 106.265 78.5C99.9532 96.2988 83.412 109 64 109C37.5 109 18 87.6813 18 62C18 48.8754 26 33 33.5 29C35.6687 46.2925 41.9763 70.8331 43.6099 77.0336C43.8401 77.9072 44.6274 78.5 45.5308 78.5H49C49.8889 78.5 50.6711 77.9134 50.92 77.06L57.5 54.5L65.1447 87.9457C65.3526 88.8551 66.1616 89.5 67.0944 89.5H71.0342C71.9068 89.5 72.6786 88.9343 72.9414 88.1023L78.5 70.5L81.5 76.5H105.5Z" fill="#00C000"/>
<path d="M109 62.5C109 64.8793 108.5 69.5 108 72C100.5 72.5 85 73 85 73L79.5 54.5H72L66 75C66 75 61 46.5 59.5 39C58.7532 35.2661 51 37 51 37L43.5 63.5C43.5 63.5 38 38 36.5 25.6903C44.1047 19.615 53.6438 16 64 16C88.8528 16 109 36.8188 109 62.5Z" fill="#FF8C1A"/>
</svg>

<svg xmlns="http://www.w3.org/2000/svg" width="128" height="128" fill="none" xmlns:v="https://vecta.io/nano"><path d="M105.5 76.5l.765 2C99.953 96.299 83.412 109 64 109c-26.5 0-46-21.319-46-47 0-13.125 8-29 15.5-33 2.169 17.292 8.476 41.833 10.11 48.034.23.874 1.017 1.466 1.921 1.466H49a2 2 0 0 0 1.92-1.44L57.5 54.5l7.645 33.446a2 2 0 0 0 1.95 1.554h3.94a2 2 0 0 0 1.907-1.398L78.5 70.5l3 6h24z" fill="#00c000"/><path d="M109 62.5c0 2.379-.5 7-1 9.5-7.5.5-23 1-23 1l-5.5-18.5H72L66 75l-6.5-36c-.747-3.734-8.5-2-8.5-2l-7.5 26.5S38 38 36.5 25.69C44.105 19.615 53.644 16 64 16c24.853 0 45 20.819 45 46.5z" fill="#ff8c1a"/></svg>
